Papirus/22x22/devices/video-television.svg

<?xml version="1.0" encoding="UTF-8" standalone="no"?>
<svg xmlns="http://www.w3.org/2000/svg" height="22" width="22" version="1.1">
 <rect style="fill:#7e7e7e" x="-20" y="-17" width="16" height="12" transform="matrix(0,-1,-1,0,0,0)" rx="1" ry="1"/>
 <rect style="fill:#6d6d6d" x="-18" y="-21" width="16" height="20" ry="1" rx="1" transform="matrix(0,-1,-1,0,0,0)"/>
 <rect style="fill:#464646" x="-17" y="-20" width="14" height="18" transform="matrix(0,-1,-1,0,0,0)" rx="0" ry="0"/>
 <path style="opacity:0.8;fill:#ffffff" d="m 4,6 0,2 2,0 0,6 2,0 0,-6 2,0 0,-2 -4,0 z m 7,0 1.5,8 3,0 L 17,6 15,6 14,11.333 13,6 Z"/>
 <path style="opacity:0.2;fill:#ffffff" d="M 2,2 C 1.446,2 1,2.446 1,3 l 0,0.5 c 0,-0.554 0.446,-1 1,-1 l 18,0 c 0.554,0 1,0.446 1,1 L 21,3 C 21,2.446 20.554,2 20,2 L 2,2 Z"/>
 <path style="opacity:0.2" d="m 5,19 0,0.5 c 0,0.554 0.446,1 1,1 l 10,0 c 0.554,0 1,-0.446 1,-1 L 17,19 c 0,0.554 -0.446,1 -1,1 L 6,20 C 5.446,20 5,19.554 5,19 Z"/>
 <path style="opacity:0.2" d="m 1,17 0,0.5 c 0,0.554 0.446,1 1,1 l 18,0 c 0.554,0 1,-0.446 1,-1 L 21,17 c 0,0.554 -0.446,1 -1,1 L 2,18 C 1.446,18 1,17.554 1,17 Z"/>
</svg>

<svg xmlns="http://www.w3.org/2000/svg" width="22" height="22" version="1.1">
 <rect style="opacity:0.2" width="16" height="12" x="-20.5" y="-17" rx="1" ry="1" transform="matrix(0,-1,-1,0,0,0)"/>
 <rect style="fill:#7e7e7e" width="16" height="12" x="-20" y="-17" rx="1" ry="1" transform="matrix(0,-1,-1,0,0,0)"/>
 <rect style="opacity:0.2" width="16" height="20" x="-18.5" y="-21" rx="1" ry="1" transform="matrix(0,-1,-1,0,0,0)"/>
 <rect style="fill:#8e8e8e" width="16" height="20" x="-18" y="-21" rx="1" ry="1" transform="matrix(0,-1,-1,0,0,0)"/>
 <rect style="fill:#464646" width="12" height="16" x="-16" y="-19" rx="0" ry="0" transform="matrix(0,-1,-1,0,0,0)"/>
 <path style="opacity:0.2;fill:#ffffff" d="M 2,2 C 1.446,2 1,2.446 1,3 V 3.5 C 1,2.946 1.446,2.5 2,2.5 H 20 C 20.554,2.5 21,2.946 21,3.5 V 3 C 21,2.446 20.554,2 20,2 Z"/>
 <path style="fill:#cccccc" d="M 4,6 V 8 H 6 V 14 H 8 V 8 H 10 V 6 H 6 Z M 11,6 12.5,14 H 15.5 L 17,6 H 15 L 14,11.333 13,6 Z"/>
</svg>
